X:425
T: Siji Songhuaibei
N: C2043
O: China,Anhui Wuhe
S: III, 532]
R: Xiaodiao]
M: 2/4
L: 1/16
K: D
e3fd3B2 | e3fefB2 | A3FA2B2 | d6B2 |
d2efB2A2 | F3AE2D2 | A2AFA2B2 | d8 |
efeBd3f | edB2A4 | A2BdBAFA | E3DE3F | A2BdBAFA | E8 |
A3Bd3f | e2dBA4 | d2efe2d2 | B2c2B2A2 | E3DEDEF | A8 |
d2efe2d2 | B2ABd2A2 | B8

@@@ Tune index: 6980
